src/16/actions/boundingbox_bottom_left.svg

<svg xmlns="http://www.w3.org/2000/svg" width="16" height="16" viewBox="0 0 16 16">
 <defs>
  <style id="current-color-scheme" type="text/css">
   .ColorScheme-Text { color:#5d656b; } .ColorScheme-Highlight { color:#5294e2; }
  </style>
 </defs>
 <path style="fill:currentColor" class="ColorScheme-Text" d="M 4 0 L 4 6.1054688 C 3.99795 6.1058867 3.9961906 6.1069219 3.9941406 6.1074219 C 3.4381706 6.2222919 2.9058219 6.4309994 2.4199219 6.7246094 C 2.4079409 6.7318094 2.3947245 6.7368206 2.3828125 6.7441406 C 2.1592725 6.8828006 1.9470269 7.0388775 1.7480469 7.2109375 C 1.7255329 7.2302575 1.7037936 7.2498312 1.6816406 7.2695312 C 1.4840706 7.4435912 1.3005625 7.6329775 1.1328125 7.8359375 C 1.1286725 7.8410375 1.1252128 7.8465025 1.1210938 7.8515625 C 0.95509375 8.0562325 0.80554813 8.2737131 0.67382812 8.5019531 C 0.66500812 8.5171831 0.65514738 8.531555 0.64648438 8.546875 C 0.52038438 8.772475 0.41199563 9.0076 0.32226562 9.25 C 0.30976562 9.2833 0.29694625 9.3160094 0.28515625 9.3496094 C 0.20094625 9.5884094 0.13501062 9.8332313 0.087890625 10.082031 C 0.079901625 10.125031 0.075251375 10.167938 0.068359375 10.210938 C 0.024744375 10.471937 0.001886 10.736 0 11 C 0.0008805 11.14477 0.008050375 11.289444 0.021484375 11.433594 C 0.028954375 11.520504 0.040870375 11.605826 0.052734375 11.691406 C 0.062694375 11.767836 0.074412625 11.844022 0.087890625 11.919922 C 0.097860625 11.973472 0.11138488 12.025195 0.12304688 12.078125 C 0.18421688 12.357015 0.26916312 12.630141 0.37695312 12.894531 C 0.39502012 12.938541 0.41627088 12.980067 0.43554688 13.023438 C 0.54701687 13.278847 0.67964125 13.524502 0.83203125 13.757812 C 0.85451125 13.791702 0.88101888 13.822159 0.90429688 13.855469 C 1.0677969 14.092199 1.251415 14.314381 1.453125 14.519531 C 1.4678 14.534321 1.4831899 14.54789 1.4980469 14.5625 C 1.7114269 14.77437 1.9434863 14.966549 2.1914062 15.136719 C 2.2075512 15.147709 2.2259085 15.155216 2.2421875 15.166016 C 2.4935775 15.333616 2.7596394 15.478086 3.0371094 15.597656 L 3.0527344 15.605469 C 3.0603344 15.608669 3.0685549 15.610081 3.0761719 15.613281 C 3.3631219 15.733161 3.6606437 15.826015 3.9648438 15.890625 C 3.9787198 15.893525 3.9919404 15.897591 4.0058594 15.900391 C 4.1679994 15.933101 4.33259 15.957999 4.5 15.974609 C 4.6661 15.990609 4.833 16 5 16 C 5.28942 15.999643 5.5782713 15.974158 5.8632812 15.923828 C 5.8771293 15.921428 5.8904849 15.918516 5.9042969 15.916016 C 6.1449469 15.870316 6.3819213 15.806992 6.6132812 15.726562 C 6.6576372 15.711403 6.7022807 15.698001 6.7460938 15.681641 C 6.9704738 15.597151 7.1884875 15.496629 7.3984375 15.380859 C 7.4454275 15.355099 7.4910194 15.328011 7.5371094 15.300781 C 7.7466594 15.178781 7.9470588 15.041705 8.1367188 14.890625 C 8.1637487 14.868825 8.1882637 14.844626 8.2148438 14.822266 C 8.3925638 14.672616 8.5596337 14.510771 8.7148438 14.337891 C 8.7377037 14.312461 8.7628063 14.289582 8.7851562 14.263672 C 8.9424062 14.079042 9.0860137 13.883214 9.2148438 13.677734 C 9.2448837 13.630494 9.2742344 13.583516 9.3027344 13.535156 C 9.4298944 13.321076 9.5408756 13.097797 9.6347656 12.867188 C 9.6453656 12.840837 9.6538925 12.813689 9.6640625 12.787109 C 9.7636625 12.532109 9.8420375 12.268 9.8984375 12 L 16 12 L 16 10 L 9.8945312 10 C 9.8940312 9.9973 9.8931781 9.9947875 9.8925781 9.9921875 C 9.8443781 9.7559875 9.7790656 9.523575 9.6972656 9.296875 L 9.6933594 9.2851562 C 9.6926534 9.2832563 9.6922062 9.2812969 9.6914062 9.2792969 C 9.6096063 9.0591969 9.5122906 8.8451719 9.4003906 8.6386719 C 9.3905906 8.6203719 9.3810937 8.6020844 9.3710938 8.5839844 C 9.2700937 8.4026844 9.1578562 8.2279469 9.0351562 8.0605469 C 9.0166563 8.0351469 8.9993687 8.009475 8.9804688 7.984375 C 8.8433687 7.801875 8.6939031 7.6288969 8.5332031 7.4667969 C 8.3769031 7.3120969 8.2104563 7.1679562 8.0351562 7.0351562 C 8.0056562 7.0125563 7.9772656 6.9886969 7.9472656 6.9667969 C 7.5844656 6.7018969 7.1876781 6.487125 6.7675781 6.328125 C 6.7312781 6.314425 6.6949031 6.3019625 6.6582031 6.2890625 C 6.4433031 6.2115625 6.2234 6.1489625 6 6.1015625 L 6 0 L 4 0 z"/>
</svg>

<svg xmlns="http://www.w3.org/2000/svg" width="16" height="16"><defs><style id="current-color-scheme" type="text/css"></style></defs><path d="M4 0v6.105l-.006.002a5 5 0 0 0-1.574.618c-.012.007-.025.012-.037.02a5 5 0 0 0-.635.466l-.066.059a5 5 0 0 0-.55.566l-.01.016a5 5 0 0 0-.448.65l-.028.045c-.126.225-.234.46-.324.703l-.037.1a5 5 0 0 0-.197.732c-.008.043-.013.086-.02.129A5.006 5.006 0 0 0 0 11a5 5 0 0 0 .021.434c.008.087.02.172.032.257.01.077.021.153.035.229.01.053.023.105.035.158a5 5 0 0 0 .254.817c.018.044.04.085.059.128a5 5 0 0 0 .396.735c.023.034.049.064.072.097a5 5 0 0 0 .55.665l.044.043a5 5 0 0 0 .693.574c.017.01.035.018.051.029a5 5 0 0 0 .795.432l.016.007c.007.004.016.005.023.008a5 5 0 0 0 .889.278l.04.01a4.985 4.985 0 0 0 1.858.023l.041-.008a5 5 0 0 0 .71-.19c.044-.015.088-.028.132-.044a5 5 0 0 0 .652-.301l.14-.08a5 5 0 0 0 .599-.41c.027-.022.051-.046.078-.069a5 5 0 0 0 .5-.484c.023-.026.048-.048.07-.074a5 5 0 0 0 .518-.729 5 5 0 0 0 .332-.668l.03-.08c.099-.255.177-.519.233-.787H16v-2H9.895l-.002-.008a4.986 4.986 0 0 0-.196-.695l-.004-.012c0-.002 0-.004-.002-.006a5.003 5.003 0 0 0-.29-.64l-.03-.055a5.009 5.009 0 0 0-.336-.523l-.055-.077a5.006 5.006 0 0 0-.447-.517 5 5 0 0 0-.498-.432l-.088-.068a5.004 5.004 0 0 0-1.18-.639c-.036-.014-.072-.026-.109-.039A4.998 4.998 0 0 0 6 6.102V0H4z" fill="currentColor" color="#5d656b"/></svg>
